X: 194
T: SLIP JIG: Kid on the Mountain
C: C: Trad.; S: Various
C: Set Leaders: Andrey, Vova
Z: Oleg Naumov arr.; Benjamin Glauser at The Session
N: https://thesession.org/members/26966/sets/96721
R: Slip Jig
M: 9/8
L: 1/8
Q: 3/8=114
K: Emin
|:"Em"E3 FEF G2F|"Em"E3 BcA BGE|"Em"EDE FEF G2A|"G"BAG "D"FAG FED:||
|:"G (C)"BGB "D"AFA "G"G2D|"G"GAB dge dBA|"G (C)"BGB "D"AFA "G"G2A|"G"BAG FAG "D"FED:||
|:"Em"gfg eBB e2f|"Em"gfg efg "D"afd|"Em"gfg eBB e2a|"C"bag fag "D"fed:||
|:"Em"eBB e2f g2f|"Em"eBB efg "D"afd|"Em"eBB e2f g2a|"C"bag fag "D"fed:||
|:"G (C)"edB "D"dBA "G"G2D|"G"GAB dge dBd|"G (C)"edB "D"dBA "G"G2A|"G"BAG "D"FAG FED:||

